packages/kaspersky-hexa-ui-icons/src/iconsSVGs/16/Present.svg

<svg width="16" height="16" viewBox="0 0 16 16" fill="none" xmlns="http://www.w3.org/2000/svg">
<path d="M7.99995 3.09397C7.6227 2.42102 7.11475 1.92824 6.54158 1.6335C5.4714 1.08317 4.17521 1.2621 3.46395 2.29898C3.11522 2.80736 2.8495 3.80634 3.56738 4.6773L3.57238 4.68335H3.2666C2.57624 4.68335 2.0166 5.24299 2.0166 5.93335V7.40001C2.0166 7.87968 2.28678 8.29625 2.68326 8.50583V13.4C2.68326 14.0904 3.2429 14.65 3.93326 14.65H12.0666C12.7569 14.65 13.3166 14.0904 13.3166 13.4V8.50585C13.7131 8.29627 13.9833 7.87969 13.9833 7.40001V5.93335C13.9833 5.24299 13.4236 4.68335 12.7333 4.68335H12.4275C12.4292 4.68133 12.4308 4.67932 12.4325 4.6773C13.1504 3.80634 12.8847 2.80736 12.5359 2.29898C11.8247 1.2621 10.5285 1.08317 9.45831 1.6335C8.88514 1.92824 8.37719 2.42102 7.99995 3.09397ZM5.94708 2.7896C6.43599 3.04101 6.97014 3.62687 7.22802 4.66282C5.50711 4.56628 4.81717 4.14968 4.57054 3.85046C4.33442 3.56398 4.40202 3.22962 4.53597 3.03435C4.80968 2.63533 5.34684 2.48093 5.94708 2.7896ZM7.34995 5.98335V7.35002H3.3166V5.98335H7.34995ZM8.64995 7.35002V5.98335H12.6833V7.35002H8.64995ZM7.34995 8.65004V13.35H3.98326V8.65004H7.34995ZM8.64995 13.35V8.65004H12.0166V13.35H8.64995ZM11.4639 3.03435C11.5979 3.22962 11.6655 3.56398 11.4294 3.85046C11.1827 4.14968 10.4928 4.56628 8.77187 4.66282C9.02975 3.62687 9.5639 3.04101 10.0528 2.7896C10.6531 2.48093 11.1902 2.63533 11.4639 3.03435Z" fill="black"/>
</svg>

<svg xmlns="http://www.w3.org/2000/svg" width="16" height="16" fill="none" viewBox="0 0 16 16"><path fill="#000" fill-rule="evenodd" d="M8 3.094c-.3773-.673-.8853-1.1658-1.4584-1.4605-1.0702-.5504-2.3664-.3714-3.0776.6655-.3488.5083-.6145 1.5073.1034 2.3783l.005.006h-.3058c-.6904 0-1.25.5597-1.25 1.25V7.4c0 .4796.2702.8962.6667 1.1058V13.4c0 .6904.5596 1.25 1.25 1.25h8.1333c.6903 0 1.25-.5596 1.25-1.25V8.5058A1.25 1.25 0 0 0 13.9833 7.4V5.9333c0-.6903-.5597-1.25-1.25-1.25h-.3058l.005-.006c.7179-.871.4522-1.87.1034-2.3783-.7112-1.037-2.0074-1.2159-3.0776-.6655C8.8851 1.9282 8.3772 2.421 8 3.0939m-2.053-.3044c.489.2514 1.0231.8372 1.281 1.8732-1.7209-.0965-2.4108-.5131-2.6575-.8124-.236-.2864-.1685-.6208-.0345-.816.2737-.3991.8108-.5535 1.411-.2448M7.35 5.9833V7.35H3.3165V5.9833zM8.65 7.35V5.9833h4.0333V7.35zm-1.3 1.3v4.7H3.9833v-4.7zm1.3 4.7v-4.7h3.3666v4.7zm2.8139-10.3157c.134.1953.2016.5297-.0345.8161-.2467.2993-.9366.7159-2.6575.8124.2578-1.036.792-1.6218 1.2809-1.8732.6003-.3087 1.1374-.1543 1.4111.2447"/></svg>
